docs/static/images/signature.svg

<svg xmlns="http://www.w3.org/2000/svg" width="2200" height="1186" xmlns:v="https://vecta.io/nano"><path d="M0 0v1186h2200V0H0z" fill="#fefefe"/><path d="M726 624c-14.54 3.364-28.782 9.113-43 13.656l-92 30.34C491.59 701.87 392.332 740.002 302 794.2c-30.964 18.578-63.597 39.804-85.764 68.8-10.444 13.66-18.608 33.937-8.267 50 13.006 20.2 42.08 19.264 63.03 17.17 54.53-5.452 107.228-22.245 159-39.502 47.714-15.905 94.75-35.514 140-57.41 54.78-26.506 108.112-56.088 154-96.544 16.734-14.752 33.335-33.923 41.988-54.714 3.204-7.697 5.913-15.666 6.845-24 .5-4.378.085-10.056 4.314-12.722 5.303-3.343 12.922-4.636 18.853-6.61l198-63 123-40.975c23.55-8.382 47.33-16.283 70-26.912 14.2-6.652 27.9-13.757 41-22.447 5.66-3.757 12.8-8.325 10.57-16.293-1.35-4.768-6.1-6.232-10.57-5.942-8.68.563-17.9 5.884-26 8.85-37 13.536-74.6 25.6-112 38.053-79.38 26.46-159.588 51.992-240 75.14-19.73 5.68-39.513 11.727-59 18.192-5.64 1.872-11.36 3.467-17 5.334-2.377.786-5.353 2.233-7.907 1.545-3.21-.864-5.045-4.676-6.763-7.212-3.827-5.652-8.094-10.888-12.616-16-10.15-11.474-23.424-21.054-35.714-30.117-5.65-4.166-14.46-8.393-18.534-14.18-1.973-2.803.177-4.834 2.558-6.352 5.698-3.633 12.082-6.446 17.976-9.776l76-43.375c79.077-47.19 158.2-97.143 223-163.205 4.42-4.5 8.6-9.213 12.7-13.996 17.02-19.825 42.75-53.874 26.17-81-9.9-16.194-29.32-20-46.88-20-36.352 0-73.027 13.697-106 27.85-56.012 24.04-107.98 58.186-155 96.726-31.33 25.68-61.723 53.918-86.105 86.424-15.963 21.282-30.634 45.23-34.467 72-1.298 9.068-.76 19.082 1.237 28 .835 3.728 3.98 9.18 1.638 12.787-2.567 3.95-9.252 5.94-13.303 7.966l-32 15.99c-37.883 18.33-76.196 35.4-115 51.682-23.998 10.07-48.046 20.34-73 27.856-16.557 4.988-33.25 8.79-50 12.96-6.373 1.587-12.02 5.766-12.747 12.76-1.048 10.086 8.883 15.534 17.747 13.6 7.904-1.716 14.907-7.11 23-9.135 24.152-6.04 48.846-9.733 73-15.85 49.963-12.652 98.692-33.478 145-55.884l45-21.99c4.84-2.42 12.45-8.238 18-7.93 2.776.155 4.954 2.282 7 3.93L671 575c13.987 10.987 29.217 20.545 42 33.015 4.918 4.797 10.476 9.47 13 15.985z" fill="#0d0909"/><path d="M993 242.425c-40.433 5.504-79.356 21.987-115 41.266-59.02 31.923-112.55 71.854-160 119.31-21.035 21.036-43.952 46.58-54.305 75-2.817 7.733-3.805 14.805-3.69 23 .038 2.705-.14 7.296 3.224 8.184 2.294.605 4.854-1.015 6.772-2.05l14-7.71 56-31.274c78.165-44.62 157.045-92.737 224-153.32 16.17-14.632 31.772-30.924 44.28-48.83 2.93-4.194 11.46-15.285 8.6-20.72-3.04-5.76-18.596-3.573-23.88-2.854z" fill="#fefefe"/><path d="M1687 716c2.03 7.193 3.37 14.792 7.8 21 11.64 16.33 31.26 21 50.2 21 32.6 0 64.2-8.068 95-18.333 12.75-4.25 25.4-8.67 38-13.348 6.72-2.495 13.94-5.863 16.2-13.32 2.68-8.87-4.47-16.92-13.2-17.6-5.25-.414-11.07 1.68-16 3.28-30.58 9.928-62.04 19.46-94 23.612-12.47 1.62-29.3 4.606-40.98-1.724-11.6-6.28-2.56-20.037 2.7-27.558 5.83-8.333 12.64-15.993 20.28-22.714 7.3-6.428 16.56-12.48 21.18-21.286 5.2-9.928 2.8-22.886-8.18-27.633-10.57-4.57-20.32 1.73-28 8.478-9.9 8.692-19.26 17.758-30 25.445-37.04 26.512-76.55 51.04-118 70.02-10.72 4.907-21.56 9.786-33 12.807-5.04 1.332-9.8 2.895-15 1.884 10.48-15.345 24.56-28.05 39-39.6a412.82 412.82 0 0 1 65-42.619c12.4-6.54 31.64-17.16 46-13.78-1.3 6.093 2.64 13.745 9.96 9.97 5.98-3.083 12.78-12.663 14.82-18.97 4.55-14.104-6.9-27.132-20.78-28.816-22.6-2.74-45.07 7.678-65 16.844-33.35 15.342-65.07 38.122-92 62.886-13.7 12.6-28.44 27.48-35.55 45.086-9.26 22.946 3.52 45.325 28.55 47.83 27.16 2.718 56.23-9.725 80-21.582 14.85-7.408 29.66-14.883 44-23.26 10.15-5.93 20.22-13.337 31-17.988m-716 29c-4.904 10.49-11.335 19.518-14.1 31-5.936 24.643 9.847 44.246 35.1 44.87 28.7.7 59.1-15.137 84-27.624 11.66-5.847 23.36-12.72 34-20.3 4.5-3.2 9.35-7.897 8.74-13.957-1.3-13.042-15.68-9.29-23.74-6.32-24.47 9.018-48.18 19.92-73 27.99-7.43 2.413-15.17 4.903-23 5.39-2.6.163-7.19.708-7.045-3.172.125-3.29 2.88-7.12 4.473-9.887 4.672-8.124 10.512-15.706 16.372-23 22.57-28.074 50.16-50.5 76.2-75.09 11.63-10.987 14.85-32.738-5-37.23-9.1-2.06-17.63 3.305-25 7.895l-38 23.374c-51.167 32.028-102.982 65.288-157 92.297-17.76 8.88-35.652 18.166-55 23.123-4.5 1.154-16.737 5.62-19.932.312-2.304-3.827 1.8-10.34 3.572-13.682 6.188-11.67 14.698-22.236 23.53-32 26.108-28.867 61.296-50.96 96.83-66.28 11.843-5.107 28.86-13.283 42-10.72-3.62 8.69-8.818 16.646-14.666 24-2.683 3.374-6.392 6.276-8.576 10-1.962 3.344-1.003 7.87 3.285 8.623 4.1.72 6.615-3.017 9.127-5.537 3.552-3.565 7.782-6.285 11.83-9.237 15.1-11.016 44.92-30.72 30.147-52.85a28.95 28.95 0 0 0-6.151-6.606c-3.467-2.72-7.752-4.16-11.996-5.158-21.06-4.96-45.55 3.007-65 10.764-48.1 19.182-94.927 49.726-126.88 91-16.95 21.895-41.606 60.496-17.027 85.96 3.13 3.24 6.826 5.818 10.907 7.716 20.747 9.648 46.812 2.36 67-5.252 32.23-12.155 62.197-29.167 92-46.274l26-15.354c5.214-3.148 10.156-6.946 16-8.796m552-118.47c-8.97 2.027-17.83 7.14-26 11.224-19.18 9.59-37.47 21.066-56 31.823a2622.61 2622.61 0 0 1-144 77.671c-20.78 10.387-42.56 19.595-65 25.742-9.73 2.666-22.13 5.758-32 2.478-14.3-4.757-6.27-25.578-3-35.467 8.72-26.406 22.3-52.027 36.28-76 3.54-6.057 10.2-9.742 13.15-16 3.62-7.66-2.1-16.43-10.43-16.855-6.76-.344-13.05 4.258-18 8.32-11.75 9.63-20.6 21.74-28.57 34.535-4.3 6.884-8.26 13.958-12.28 21-2.98 5.233-5.8 10.55-8.37 16-13.46 28.5-27.33 71.67 4.22 93.957 4.32 3.054 8.92 5.174 14 6.615 8.6 2.435 17.13 2.63 26 2.413 28.3-.693 56.77-14.122 82-25.676 54.68-25.04 106.76-56.108 158-87.498l53-33.478c9.62-6.414 20.85-13.02 28.8-21.504 9.56-10.224 1-22.2-11.8-19.3z" fill="#0d0909"/><path d="M732 659c-38.984 14.927-79.657 25.7-119 39.692-89.843 31.976-179.047 65.886-263 111.54-29.866 16.24-59.118 34.02-85 56.197-6.13 5.252-12.25 11.162-17.177 17.572-1.56 2.03-5.145 6.52-1.5 8.397 2.14 1.098 5.348.602 7.667.603 6.435.003 12.607-.33 19-.925 25.798-2.4 50.992-9.274 76-15.705 37.747-9.706 74.615-23.105 111-36.946 62.594-23.81 124.272-51.988 181-87.743 27.51-17.338 55.588-37.197 76.195-62.68 4.82-5.96 9.133-12.13 12.557-19 1.797-3.607 3.77-7.06 2.248-11z" fill="#fefefe"/></svg>

<?xml version="1.0" encoding="UTF-8" standalone="no"?>
<!DOCTYPE svg PUBLIC "-//W3C//DTD SVG 1.1//EN" "http://www.w3.org/Graphics/SVG/1.1/DTD/svg11.dtd">
<svg width="100%" height="100%" viewBox="0 0 2200 1186" version="1.1" xmlns="http://www.w3.org/2000/svg" xmlns:xlink="http://www.w3.org/1999/xlink" xml:space="preserve" xmlns:serif="http://www.serif.com/" style="fill-rule:evenodd;clip-rule:evenodd;stroke-linejoin:round;stroke-miterlimit:2;">
    <path d="M726,624C711.46,627.364 697.218,633.113 683,637.656L591,667.996C491.59,701.87 392.332,740.002 302,794.2C271.036,812.778 238.403,834.004 216.236,863C205.792,876.66 197.628,896.937 207.969,913C220.975,933.2 250.049,932.264 270.999,930.17C325.529,924.718 378.227,907.925 429.999,890.668C477.713,874.763 524.749,855.154 569.999,833.258C624.779,806.752 678.111,777.17 723.999,736.714C740.733,721.962 757.334,702.791 765.987,682C769.191,674.303 771.9,666.334 772.832,658C773.332,653.622 772.917,647.944 777.146,645.278C782.449,641.935 790.068,640.642 795.999,638.668L993.999,575.668L1117,534.693C1140.55,526.311 1164.33,518.41 1187,507.781C1201.2,501.129 1214.9,494.024 1228,485.334C1233.66,481.577 1240.8,477.009 1238.57,469.041C1237.22,464.273 1232.47,462.809 1228,463.099C1219.32,463.662 1210.1,468.983 1202,471.949C1165,485.485 1127.4,497.549 1090,510.002C1010.62,536.462 930.411,561.994 849.999,585.142C830.269,590.822 810.486,596.869 790.999,603.334C785.359,605.206 779.639,606.801 773.999,608.668C771.622,609.454 768.646,610.901 766.092,610.213C762.882,609.349 761.047,605.537 759.329,603.001C755.502,597.349 751.235,592.113 746.713,587.001C736.563,575.527 723.289,565.947 710.999,556.884C705.349,552.718 696.539,548.491 692.465,542.704C690.492,539.901 692.642,537.87 695.023,536.352C700.721,532.719 707.105,529.906 712.999,526.576L788.999,483.201C868.076,436.011 947.199,386.058 1012,319.996C1016.42,315.496 1020.6,310.783 1024.7,306C1041.72,286.175 1067.45,252.126 1050.87,225C1040.97,208.806 1021.55,205 1003.99,205C967.637,205 930.962,218.697 897.989,232.85C841.977,256.89 790.009,291.036 742.989,329.576C711.659,355.256 681.266,383.494 656.884,416C640.921,437.282 626.25,461.23 622.417,488C621.119,497.068 621.657,507.082 623.654,516C624.489,519.728 627.634,525.18 625.292,528.787C622.725,532.737 616.04,534.727 611.989,536.753L579.989,552.743C542.106,571.073 503.793,588.143 464.989,604.425C440.991,614.495 416.943,624.765 391.989,632.281C375.432,637.269 358.739,641.071 341.989,645.241C335.616,646.828 329.969,651.007 329.242,658.001C328.194,668.087 338.125,673.535 346.989,671.601C354.893,669.885 361.896,664.491 369.989,662.466C394.141,656.426 418.835,652.733 442.989,646.616C492.952,633.964 541.681,613.138 587.989,590.732L632.989,568.742C637.829,566.322 645.439,560.504 650.989,560.812C653.765,560.967 655.943,563.094 657.989,564.742L671,575C684.987,585.987 700.217,595.545 713,608.015C717.918,612.812 723.476,617.485 726,624ZM717.299,664.42C682.861,676.673 647.422,686.45 613,698.692C523.157,730.668 433.953,764.578 350,810.232C320.134,826.472 290.882,844.252 265,866.429C258.87,871.681 252.75,877.591 247.823,884.001C246.263,886.031 242.678,890.521 246.323,892.398C248.463,893.496 251.671,893 253.99,893.001C260.425,893.004 266.597,892.671 272.99,892.076C298.788,889.676 323.982,882.802 348.99,876.371C386.737,866.665 423.605,853.266 459.99,839.425C522.584,815.615 584.262,787.437 640.99,751.682C668.5,734.344 696.578,714.485 717.185,689.002C722.005,683.042 726.318,676.872 729.742,670.002C731.539,666.395 733.512,662.943 731.991,659.004L717.299,664.42ZM971,745.011C966.096,755.501 959.665,764.529 956.9,776.011C950.964,800.654 966.747,820.257 992,820.881C1020.7,821.581 1051.1,805.744 1076,793.257C1087.66,787.41 1099.36,780.537 1110,772.957C1114.5,769.757 1119.35,765.06 1118.74,759C1117.44,745.958 1103.06,749.71 1095,752.68C1070.53,761.698 1046.82,772.6 1022,780.67C1014.57,783.083 1006.83,785.573 999,786.06C996.4,786.223 991.81,786.768 991.955,782.888C992.08,779.598 994.835,775.768 996.428,773.001C1001.1,764.877 1006.94,757.295 1012.8,750.001C1035.37,721.927 1062.96,699.501 1089,674.911C1100.63,663.924 1103.85,642.173 1084,637.681C1074.9,635.621 1066.37,640.986 1059,645.576L1021,668.95C969.833,700.978 918.018,734.238 864,761.247C846.24,770.127 828.348,779.413 809,784.37C804.5,785.524 792.263,789.99 789.068,784.682C786.764,780.855 790.868,774.342 792.64,771C798.828,759.33 807.338,748.764 816.17,739C842.278,710.133 877.466,688.04 913,672.72C924.843,667.613 941.86,659.437 955,662C951.38,670.69 946.182,678.646 940.334,686C937.651,689.374 933.942,692.276 931.758,696C929.796,699.344 930.755,703.87 935.043,704.623C939.143,705.343 941.658,701.606 944.17,699.086C947.722,695.521 951.952,692.801 956,689.849C971.1,678.833 1000.92,659.129 986.147,636.999C984.455,634.489 982.379,632.26 979.996,630.393C976.529,627.673 972.244,626.233 968,625.235C946.94,620.275 922.45,628.242 903,635.999C854.9,655.181 808.073,685.725 776.12,726.999C759.17,748.894 734.514,787.495 759.093,812.959C762.223,816.199 765.919,818.777 770,820.675C790.747,830.323 816.812,823.035 837,815.423C869.23,803.268 899.197,786.256 929,769.149L955,753.795C960.214,750.647 965.156,746.849 971,744.999L971,745.011ZM1523,626.529C1535.8,623.629 1544.36,635.605 1534.8,645.829C1526.85,654.313 1515.62,660.919 1506,667.333L1453,700.811C1401.76,732.201 1349.68,763.269 1295,788.309C1269.77,799.863 1241.3,813.292 1213,813.985C1204.13,814.202 1195.6,814.007 1187,811.572C1181.92,810.131 1177.32,808.011 1173,804.957C1141.45,782.67 1155.32,739.5 1168.78,711C1171.35,705.55 1174.17,700.233 1177.15,695C1181.17,687.958 1185.13,680.884 1189.43,674C1197.4,661.205 1206.25,649.095 1218,639.465C1222.95,635.403 1229.24,630.801 1236,631.145C1244.33,631.57 1250.05,640.34 1246.43,648C1243.48,654.258 1236.82,657.943 1233.28,664C1219.3,687.973 1205.72,713.594 1197,740C1193.73,749.889 1185.7,770.71 1200,775.467C1209.87,778.747 1222.27,775.655 1232,772.989C1254.44,766.842 1276.22,757.634 1297,747.247C1345.8,722.861 1393.82,696.958 1441,669.576C1459.53,658.819 1477.82,647.343 1497,637.753C1505.17,633.669 1514.03,628.556 1523,626.529ZM1687,716C1689.03,723.193 1690.37,730.792 1694.8,737C1706.44,753.33 1726.06,758 1745,758C1777.6,758 1809.2,749.932 1840,739.667C1852.75,735.417 1865.4,730.997 1878,726.319C1884.72,723.824 1891.94,720.456 1894.2,712.999C1896.88,704.129 1889.73,696.079 1881,695.399C1875.75,694.985 1869.93,697.079 1865,698.679C1834.42,708.607 1802.96,718.139 1771,722.291C1758.53,723.911 1741.7,726.897 1730.02,720.567C1718.42,714.287 1727.46,700.53 1732.72,693.009C1738.55,684.676 1745.36,677.016 1753,670.295C1760.3,663.867 1769.56,657.815 1774.18,649.009C1779.38,639.081 1776.98,626.123 1766,621.376C1755.43,616.806 1745.68,623.106 1738,629.854C1728.1,638.546 1718.74,647.612 1708,655.299C1670.96,681.811 1631.45,706.339 1590,725.319C1579.28,730.226 1568.44,735.105 1557,738.126C1551.96,739.458 1547.2,741.021 1542,740.01C1552.48,724.665 1566.56,711.96 1581,700.41C1601.28,684.191 1623.04,669.921 1646,657.791C1658.4,651.251 1677.64,640.631 1692,644.011C1690.7,650.104 1694.64,657.756 1701.96,653.981C1707.94,650.898 1714.74,641.318 1716.78,635.011C1721.33,620.907 1709.88,607.879 1696,606.195C1673.4,603.455 1650.93,613.873 1631,623.039C1597.65,638.381 1565.93,661.161 1539,685.925C1525.3,698.525 1510.56,713.405 1503.45,731.011C1494.19,753.957 1506.97,776.336 1532,778.841C1559.16,781.559 1588.23,769.116 1612,757.259C1626.85,749.851 1641.66,742.376 1656,733.999C1666.15,728.069 1676.22,720.662 1687,716.011L1687,716ZM1005.32,241.419C1010.42,241.454 1015.31,242.311 1016.88,245.281C1019.74,250.716 1011.21,261.807 1008.28,266.001C995.773,283.907 980.171,300.199 964.001,314.831C897.046,375.414 786.668,437.385 740.001,468.151C722.151,479.919 695.668,492.928 684.001,499.425C679.347,502.017 673.463,505.508 670.001,507.135C668.2,507.981 666.25,509.29 664.307,509.314L664.199,509.314C663.875,509.311 663.552,509.27 663.229,509.185C659.865,508.297 660.043,503.706 660.005,501.001C659.89,492.806 660.878,485.734 663.695,478.001C674.048,449.581 696.965,424.037 718,403.001C765.45,355.545 818.98,315.614 878,283.691C913.644,264.412 952.567,247.929 993,242.425L993.001,242.427L994.107,242.277C996.738,241.926 1000.83,241.429 1004.86,241.418L1005.32,241.419Z" style="fill:rgb(13,9,9);"/>
</svg>
